dist/img/svg/ic_info.svg

<svg width="13" height="15" viewBox="0 0 13 15" fill="none" xmlns="http://www.w3.org/2000/svg">
<path d="M6.44537 5.35471C6.07277 5.35471 5.80784 5.51203 5.80784 5.74386V8.89834C5.80784 9.09703 6.0728 9.29575 6.44537 9.29575C6.80139 9.29575 7.09116 9.09703 7.09116 8.89834V5.74386C7.09116 5.51203 6.80139 5.35471 6.44537 5.35471Z" fill="#BBBBBB"/>
<path d="M6.44537 3.40901C6.06451 3.40901 5.76645 3.68224 5.76645 3.99686C5.76645 4.31147 6.06451 4.59299 6.44537 4.59299C6.81797 4.59299 7.11604 4.31147 7.11604 3.99686C7.11604 3.68227 6.81794 3.40901 6.44537 3.40901Z" fill="#BBBBBB"/>
<path d="M6.44531 0C2.88275 0 0 2.88129 0 6.44159C0 9.34875 1.91405 11.7627 4.49464 12.5825L5.96042 14.743C6.06946 14.9038 6.25107 15 6.44531 15C6.63955 15 6.82116 14.9038 6.9302 14.743L8.39599 12.5825C10.9777 11.7623 12.8906 9.34749 12.8906 6.44159C12.8906 2.87903 10.0056 0 6.44531 0ZM7.87046 11.5166C7.73701 11.5539 7.62114 11.6373 7.54336 11.7519L6.44531 13.3704L5.34729 11.7519C5.26948 11.6373 5.15361 11.5539 5.02017 11.5166C2.82354 10.9024 1.17188 8.88226 1.17188 6.44159C1.17188 3.53584 3.53754 1.17188 6.44531 1.17188C9.35309 1.17188 11.7188 3.53584 11.7188 6.44159C11.7188 8.88469 10.0646 10.9031 7.87046 11.5166Z" fill="#BBBBBB"/>
</svg>

<svg width="13" height="15" viewBox="0 0 13 15" fill="none" xmlns="http://www.w3.org/2000/svg"><path d="M6.445 5.355c-.372 0-.637.157-.637.389v3.154c0 .199.265.398.637.398.356 0 .646-.199.646-.398V5.744c0-.232-.29-.39-.646-.39zm0-1.946c-.38 0-.679.273-.679.588 0 .314.299.596.68.596.372 0 .67-.282.67-.596 0-.315-.298-.588-.67-.588z" fill="#BBB"/><path d="M6.445 0a6.443 6.443 0 00-1.95 12.582l1.465 2.161a.586.586 0 00.97 0l1.466-2.16a6.443 6.443 0 004.495-6.141A6.44 6.44 0 006.445 0zM7.87 11.517a.586.586 0 00-.327.235L6.445 13.37l-1.098-1.618a.586.586 0 00-.327-.235 5.272 5.272 0 01-3.848-5.075 5.278 5.278 0 015.273-5.27 5.278 5.278 0 015.274 5.27 5.272 5.272 0 01-3.849 5.075z" fill="#BBB"/></svg>
